X: 14070
T: The OUIMETTES' JIG
C: Bob McQuillen 23 Oct 2008
B: Bob's Note Book 14 #70
%R: jig
%D:2008
Z: 2020 John Chambers <jc:trillian.mit.edu>
M: 6/8
L: 1/8
K: C	% and Am
A \
| GEG ceg | e2c G2c | ABc ded | c3- c GF \
| EGA Gcd | e2c ABc | ded cBA | G3- G EG |
| AFA f2A | GEG e2g | fed cBc | d2B G2G \
| ABc BAG | ceg agf | edc dcB | c3- c2 |]
[| B \
| ABc BAG | c2A GAG | EAc B2G | A3- A2 G \
| cAc Bcd | e2c Acd | efg agf | e3- e fg |
| aea aea | gdg gdg | fed cec | Adc BAG \
| ABc Bcd | ceg a2g | edc BAG | A3- A2 |]
%%begintext align
%% Ed and Leanne
%% recently got married, and they got Old New
%% England to play for the nice dance that
%% followed their wedding. It was truly a great
%% day; thanks a lot, dear friends, for
%% letting us share your happiness -- you made
%% us happy, too!
%%endtext

%%sep 1 1 500

%%sep 1 1 500

